SVG_Azure_Grouped/Data/Azure Cosmos DB Replication.svg

<?xml version="1.0" encoding="UTF-8" standalone="no"?>
<!-- Generated by Microsoft Visio, SVG Export Azure Cosmos DB Replication.svg Page-1 -->

<svg
   xmlns:dc="http://purl.org/dc/elements/1.1/"
   xmlns:cc="http://creativecommons.org/ns#"
   xmlns:rdf="http://www.w3.org/1999/02/22-rdf-syntax-ns#"
   xmlns:svg="http://www.w3.org/2000/svg"
   xmlns="http://www.w3.org/2000/svg"
   xmlns:sodipodi="http://sodipodi.sourceforge.net/DTD/sodipodi-0.dtd"
   xmlns:inkscape="http://www.inkscape.org/namespaces/inkscape"
   width="0.74805176in"
   height="0.78739142in"
   viewBox="0 0 53.859824 56.69247"
   xml:space="preserve"
   class="st4"
   version="1.1"
   id="svg34"
   sodipodi:docname="Azure Cosmos DB Replication.svg"
   style="font-size:12px;overflow:visible;color-interpolation-filters:sRGB;fill:none;fill-rule:evenodd;stroke-linecap:square;stroke-miterlimit:3"
   inkscape:version="0.92.5 (2060ec1f9f, 2020-04-08)"><metadata
   id="metadata40"><rdf:RDF><cc:Work
       rdf:about=""><dc:format>image/svg+xml</dc:format><dc:type
         rdf:resource="http://purl.org/dc/dcmitype/StillImage" /></cc:Work></rdf:RDF></metadata><defs
   id="defs38" /><sodipodi:namedview
   pagecolor="#ffffff"
   bordercolor="#666666"
   borderopacity="1"
   objecttolerance="10"
   gridtolerance="10"
   guidetolerance="10"
   inkscape:pageopacity="0"
   inkscape:pageshadow="2"
   inkscape:window-width="640"
   inkscape:window-height="480"
   id="namedview36"
   showgrid="false"
   inkscape:zoom="1.7193066"
   inkscape:cx="35.905348"
   inkscape:cy="23.277788"
   inkscape:window-x="0"
   inkscape:window-y="0"
   inkscape:window-maximized="0"
   inkscape:current-layer="svg34" />
	<style
   type="text/css"
   id="style2">
	<![CDATA[
		.st1 {fill:#59b4d9;stroke:none;stroke-linecap:butt;stroke-width:12.24}
		.st2 {fill:#b8d432;stroke:none;stroke-linecap:butt;stroke-width:12.24}
		.st3 {fill:#0072c6;stroke:none;stroke-linecap:butt;stroke-width:12.24}
		.st4 {fill:none;fill-rule:evenodd;font-size:12px;overflow:visible;stroke-linecap:square;stroke-miterlimit:3}
	]]>
	</style>

	<g
   id="g32"
   transform="translate(-12.240131,-12.24046)">
		<title
   id="title4">Page-1</title>
		<g
   id="group19730-1"
   transform="translate(12.24,-34.0157)">
			<title
   id="title6">Azure Cosmos DB Replication.19730</title>
			<g
   id="group19731-2">
				<title
   id="title8">Sheet.19731</title>
				<g
   id="shape19732-3"
   transform="translate(0,-2.98384)">
					<title
   id="title10">Sheet.19732</title>
					<path
   d="M 26.93,102.95 C 12.09,102.95 0,90.89 0,76.09 0,61.29 12.09,49.24 26.93,49.24 c 14.84,0 26.93,12.05 26.93,26.85 0,14.8 -12.09,26.86 -26.93,26.86 z m 0,-52.52 C 12.69,50.43 1.2,61.89 1.2,76.09 c 0,14.21 11.49,25.67 25.73,25.67 14.24,0 25.73,-11.46 25.73,-25.67 0,-14.2 -11.49,-25.66 -25.73,-25.66 z"
   class="st1"
   id="path12"
   inkscape:connector-curvature="0"
   style="fill:#59b4d9;stroke:none;stroke-width:12.23999977;stroke-linecap:butt" />
				</g>
				<g
   id="shape19733-5"
   transform="translate(8.49764,-10.2644)">
					<title
   id="title15">Sheet.19733</title>
					<path
   d="m 20.71,95.55 c 0.95,-0.96 2.39,-0.96 3.23,0 l -3.71,-3.7 c -0.96,-0.96 -0.96,-2.39 0,-3.22 0.95,-0.96 2.39,-0.96 3.23,0 l 0.96,0.95 0.71,0.72 1.8,1.79 c 0.96,0.95 2.39,0.95 3.23,0 0.96,-0.96 0.96,-2.39 0,-3.23 L 28.37,87.07 27.29,86 22.02,80.51 c -0.96,-0.95 -0.96,-2.39 0,-3.22 0.96,-0.96 2.4,-0.96 3.23,0 l 2.4,2.38 c -0.96,-0.95 -0.96,-2.38 0,-3.22 0.95,-0.95 2.39,-0.95 3.23,0 l 6.22,6.21 C 36.86,78.12 35.07,73.83 31.6,70.37 28.49,67.26 24.42,65.47 20.23,64.99 l 2.75,2.75 c 1.2,1.19 1.2,2.98 0,4.06 -1.2,1.07 -2.99,1.19 -4.07,0 L 17,69.89 c -1.2,-1.2 -3,-1.2 -4.07,0 -1.2,1.19 -1.2,2.98 0,4.06 l 3.71,3.7 c 1.19,1.19 1.19,2.98 0,4.05 -1.2,1.08 -3,1.2 -4.07,0 L 8.5,77.65 c 0.48,1.07 0.24,2.38 -0.6,3.22 -1.2,1.19 -2.99,1.19 -4.07,0 l 2.99,2.98 c 1.2,1.2 1.2,2.99 0,4.06 -1.19,1.19 -2.99,1.19 -4.07,0 L 0,85.16 c 0.48,4.18 2.15,8.12 5.39,11.34 4.9,4.9 11.84,6.45 18.07,4.78 l -2.63,-2.63 c -1.08,-0.71 -1.08,-2.15 -0.12,-3.1 z"
   class="st1"
   id="path17"
   inkscape:connector-curvature="0"
   style="fill:#59b4d9;stroke:none;stroke-width:12.23999977;stroke-linecap:butt" />
				</g>
				<g
   id="shape19734-7"
   transform="translate(7.54016,-11.9354)">
					<title
   id="title20">Sheet.19734</title>
					<path
   d="m 38.18,84.33 -6.22,-6.21 c -0.96,-0.95 -2.4,-0.95 -3.24,0 -0.83,0.96 -0.95,2.39 0,3.23 L 26.33,78.96 C 25.37,78 23.94,78 23.1,78.96 c -0.96,0.95 -0.96,2.39 0,3.22 l 5.39,5.37 1.07,1.08 1.8,1.79 c 0.95,0.95 0.95,2.38 0,3.22 -0.96,0.95 -2.4,0.95 -3.23,0 l -1.8,-1.79 -0.72,-0.72 -0.95,-0.95 c -0.96,-0.96 -2.4,-0.96 -3.24,0 -0.95,0.95 -0.95,2.38 0,3.22 l 3.71,3.7 c -0.95,-0.95 -2.39,-0.95 -3.23,0 -0.96,0.96 -0.96,2.39 0,3.22 l 2.64,2.63 c 3.11,-0.84 5.98,-2.39 8.37,-4.78 3.71,-3.7 5.51,-8.83 5.27,-13.84 z M 7.54,89.58 c 1.2,-1.19 1.2,-2.98 0,-4.06 L 4.55,82.54 c 1.19,1.19 2.99,1.19 4.07,0 0.84,-0.84 1.07,-2.15 0.6,-3.22 l 4.07,4.05 c 1.19,1.2 2.99,1.2 4.06,0 1.08,-1.19 1.2,-2.98 0,-4.05 L 13.76,75.5 c -1.19,-1.2 -1.19,-2.99 0,-4.06 1.2,-1.07 3,-1.19 4.07,0 l 1.92,1.91 c 1.19,1.19 2.99,1.19 4.07,0 1.19,-1.19 1.19,-2.98 0,-4.06 L 21.06,66.55 C 15.68,65.95 10.05,67.74 5.98,71.92 1.91,76.09 0,81.58 0.6,86.96 l 2.75,2.74 c 1.2,1.07 3.11,1.07 4.19,-0.12 z"
   class="st2"
   id="path22"
   inkscape:connector-curvature="0"
   style="fill:#b8d432;stroke:none;stroke-width:12.23999977;stroke-linecap:butt" />
				</g>
				<g
   id="shape19735-9"
   transform="translate(22.6205)">
					<title
   id="title25">Sheet.19735</title>
					<ellipse
   cx="4.30866"
   cy="98.651901"
   rx="4.30866"
   ry="4.29673"
   class="st3"
   id="ellipse27"
   style="fill:#0072c6;stroke:none;stroke-width:12.23999977;stroke-linecap:butt" />
				</g>
			</g>
		</g>
	</g>
</svg>

<?xml version="1.0" encoding="UTF-8" standalone="no"?>
<!DOCTYPE svg PUBLIC "-//W3C//DTD SVG 1.1//EN" "http://www.w3.org/Graphics/SVG/1.1/DTD/svg11.dtd">
<!-- Generated by Microsoft Visio, SVG Export Azure Cosmos DB Replication.svg Page-1 -->
<svg xmlns="http://www.w3.org/2000/svg" xmlns:xlink="http://www.w3.org/1999/xlink" xmlns:ev="http://www.w3.org/2001/xml-events"
		width="1.08803in" height="1.42984in" viewBox="0 0 78.3383 102.949" xml:space="preserve" color-interpolation-filters="sRGB"
		class="st4">
	<style type="text/css">
	<![CDATA[
		.st1 {fill:#59b4d9;stroke:none;stroke-linecap:butt;stroke-width:12.24}
		.st2 {fill:#b8d432;stroke:none;stroke-linecap:butt;stroke-width:12.24}
		.st3 {fill:#0072c6;stroke:none;stroke-linecap:butt;stroke-width:12.24}
		.st4 {fill:none;fill-rule:evenodd;font-size:12px;overflow:visible;stroke-linecap:square;stroke-miterlimit:3}
	]]>
	</style>

	<g>
		<title>Page-1</title>
		<g id="group19281-1" transform="translate(12.24,-34.0157)">
			<title>Azure Cosmos DB Replication.19281</title>
			<g id="group19282-2">
				<title>Sheet.19282</title>
				<g id="shape19283-3" transform="translate(0,-2.98384)">
					<title>Sheet.19283</title>
					<path d="M26.93 102.95 C12.09 102.95 0 90.89 0 76.09 C0 61.29 12.09 49.24 26.93 49.24 C41.77 49.24 53.86 61.29
								 53.86 76.09 C53.86 90.89 41.77 102.95 26.93 102.95 ZM26.93 50.43 C12.69 50.43 1.2 61.89 1.2 76.09
								 C1.2 90.3 12.69 101.76 26.93 101.76 C41.17 101.76 52.66 90.3 52.66 76.09 C52.66 61.89 41.17 50.43
								 26.93 50.43 Z" class="st1"/>
				</g>
				<g id="shape19284-5" transform="translate(8.49764,-10.2644)">
					<title>Sheet.19284</title>
					<path d="M20.71 95.55 C21.66 94.59 23.1 94.59 23.94 95.55 L20.23 91.85 C19.27 90.89 19.27 89.46 20.23 88.63 C21.18
								 87.67 22.62 87.67 23.46 88.63 L24.42 89.58 L25.13 90.3 L26.93 92.09 C27.89 93.04 29.32 93.04 30.16
								 92.09 C31.12 91.13 31.12 89.7 30.16 88.86 L28.37 87.07 L27.29 86 L22.02 80.51 C21.06 79.56 21.06
								 78.12 22.02 77.29 C22.98 76.33 24.42 76.33 25.25 77.29 L27.65 79.67 C26.69 78.72 26.69 77.29 27.65
								 76.45 C28.6 75.5 30.04 75.5 30.88 76.45 L37.1 82.66 C36.86 78.12 35.07 73.83 31.6 70.37 C28.49 67.26
								 24.42 65.47 20.23 64.99 L22.98 67.74 C24.18 68.93 24.18 70.72 22.98 71.8 C21.78 72.87 19.99 72.99
								 18.91 71.8 L17 69.89 C15.8 68.69 14 68.69 12.93 69.89 C11.73 71.08 11.73 72.87 12.93 73.95 L16.64
								 77.65 C17.83 78.84 17.83 80.63 16.64 81.7 C15.44 82.78 13.64 82.9 12.57 81.7 L8.5 77.65 C8.98 78.72
								 8.74 80.03 7.9 80.87 C6.7 82.06 4.91 82.06 3.83 80.87 L6.82 83.85 C8.02 85.05 8.02 86.84 6.82 87.91
								 C5.63 89.1 3.83 89.1 2.75 87.91 L0 85.16 C0.48 89.34 2.15 93.28 5.39 96.5 C10.29 101.4 17.23 102.95
								 23.46 101.28 L20.83 98.65 C19.75 97.94 19.75 96.5 20.71 95.55 Z" class="st1"/>
				</g>
				<g id="shape19285-7" transform="translate(7.54016,-11.9354)">
					<title>Sheet.19285</title>
					<path d="M38.18 84.33 L31.96 78.12 C31 77.17 29.56 77.17 28.72 78.12 C27.89 79.08 27.77 80.51 28.72 81.35 L26.33
								 78.96 C25.37 78 23.94 78 23.1 78.96 C22.14 79.91 22.14 81.35 23.1 82.18 L28.49 87.55 L29.56 88.63
								 L31.36 90.42 C32.31 91.37 32.31 92.8 31.36 93.64 C30.4 94.59 28.96 94.59 28.13 93.64 L26.33 91.85
								 L25.61 91.13 L24.66 90.18 C23.7 89.22 22.26 89.22 21.42 90.18 C20.47 91.13 20.47 92.56 21.42 93.4
								 L25.13 97.1 C24.18 96.15 22.74 96.15 21.9 97.1 C20.94 98.06 20.94 99.49 21.9 100.32 L24.54 102.95
								 C27.65 102.11 30.52 100.56 32.91 98.17 C36.62 94.47 38.42 89.34 38.18 84.33 ZM7.54 89.58 C8.74 88.39
								 8.74 86.6 7.54 85.52 L4.55 82.54 C5.74 83.73 7.54 83.73 8.62 82.54 C9.46 81.7 9.69 80.39 9.22 79.32
								 L13.29 83.37 C14.48 84.57 16.28 84.57 17.35 83.37 C18.43 82.18 18.55 80.39 17.35 79.32 L13.76 75.5
								 C12.57 74.3 12.57 72.51 13.76 71.44 C14.96 70.37 16.76 70.25 17.83 71.44 L19.75 73.35 C20.94 74.54
								 22.74 74.54 23.82 73.35 C25.01 72.16 25.01 70.37 23.82 69.29 L21.06 66.55 C15.68 65.95 10.05 67.74
								 5.98 71.92 C1.91 76.09 0 81.58 0.6 86.96 L3.35 89.7 C4.55 90.77 6.46 90.77 7.54 89.58 Z"
							class="st2"/>
				</g>
				<g id="shape19286-9" transform="translate(22.6205,-4.26326E-14)">
					<title>Sheet.19286</title>
					<ellipse cx="4.30866" cy="98.6519" rx="4.30866" ry="4.29673" class="st3"/>
				</g>
			</g>
		</g>
	</g>
</svg>
